X: 8988
T: Cutty Sark
R: reel
M: 4/4
K: Gmajor
E|G2 BA G2 DB|G2 (BG) dGBg|G2 BA G2 AB|cABG ADFA|
G2 BA G2 DF|GABc dGBg|bagf g2 (Bd)|cABG ADFA||

